X:1
T:Allegro_RV316a_Organo_solo
T:Allegro RV316a
T:Organ solo
T:Antonio Vivaldi Arr: Memnarch 
C:Antonio Vivaldi
%%score { ( 1 4 5 ) | 2 | 3 }
L:1/8
Q:1/4=100
M:2/4
K:Bb
V:1 treble nm="Organo a canne" snm="Org."
V:4 treble 
V:5 treble 
V:2 bass 
V:3 bass-8 
V:1
 g2 d2 | b3 a | g^f ga | c3 e | dc BA | BG Bd | ga/b/ ag | ^f4 | g2 d2 | b3 a | g^f ga | c3 d/e/ | %12
 dc d/c/B/A/ | BG Bd | ga/b/ ag | ^f4 | b4- | be gb | a4- | ad fa | g4- | g^c =eg | ^ff/g/ ae- | %23
 e^f/g/ ad- | d^f/g/ ac- | c^f/g/ a2 | b g2 g- | g g2 g- | g g2 g- | g g2 g- | g g2 ^f | g2 z2 | %32
 g2 d2 | b3 a | g/^f/g/a/ g/f/g/a/ | c3 e | Pdc d/c/B/A/ | BG Bd | ga/b/ a/g/^f/g/ | ^f4 | %40
 g/b/a/b/ g/a/f/g/ | eg b2 | a/b/g/a/ f/g/e/f/ | df a2 | g/a/f/g/ =e/f/d/e/ | %45
 ^c/ =e/c/e/ a/e/c/e/ | A/ =e/^c/e/ a/e/c/e/ | A/ =e/^c/e/ a/e/c/e/ | f/d/=e/f/ g/a/=b/^c'/ | %49
 d'2 z f | ed T^c2 | d2 z f | (5:4:5e/f/g/a/b/ T^c2 | ^cd z a | f=e/d/ A^c | d2 A2 | f3 =e | %57
 d^c d=e | G3 A/B/ | AG F=E | FD FA | d=e/f/ ed | ^cA a2- | ag/^f/ gg | g^f z f | gg aa | dG g2- | %67
 gf/=e/ ff | f=e z e | ff gg | cF f2- | fe/d/ ee | ed B/d/c/B/ | f/d/e/c/ d/B/c/A/ | %74
 B/d/c/B/ f/d/c/B/ | f/d/e/c/ d/B/c/A/ | B/d/c/B/ f/d/c/=B/ | g/e/f/d/ e/c/d/=B/ | %78
 c/e/d/c/ g/e/d/c/ | g/e/f/d/ e/c/d/=B/ | c/e/d/c/ g/=e/d/^c/ | a/f/g/=e/ f/d/e/^c/ | %82
 d/f/=e/d/ a/f/e/d/ | a/f/g/=e/ f/d/e/^c/ | d/f/=e/d/ a/f/e/d/ | b/g/a/f/ g/e/f/d/ | %86
 e/c/d/B/ c/A/B/G/ | A A/B/ cg- | gA/B/ cf- | fA/B/ ce- | eA/B/ ce | d b2 b- | b b2 b- | b b2 b- | %94
 b b2 b- | b b2 a | B/d/c/B/ f/a/g/f/ | b2 z2 | B/d/c/B/ f/a/g/f/ | b2 z/ b/a/b/ | %100
 g/b/f/b/ =e/b/d/b/ | ^c2- c/a/g/a/ | f/a/=e/a/ d/a/c/a/ | T=B2- B/g/f/g/ | e/g/d/g/ c/g/B/g/ | %105
 A2 z/ A/=B/^c/ | d/A/^c/d/ =e/A/d/e/ | f/A/=e/f/ g/A/f/g/ | a/g/a/b/ g/^f/g/a/ | ^f2 z/ d/=e/f/ | %110
 g/a/b- b/a/g/f/ | e/d/e z/ c/d/e/ | f/g/a- a/g/f/e/ | d/c/d z/ B/c/d/ | e/f/g- g/f/e/d/ | %115
 ^c/=B/c z/ c/d/=e/ | ^ff/g/ ae- | e^f/g/ ad- | d^f/g/ ac- | c^f/g/ ac | B/G/A/B/ c/d/e/c/ | %121
 gf/e/ d/c/B/A/ | G2 d2 | b3 b/a/ | g^f ga | c2 d/c/d/e/ | dc BA | BG Bd | ga/b/ ag | %129
 g^f z/ d/e/f/ | g/a/b/a/ g/f/e/d/ | e/d/c/d/ e/f/g/e/ | f/g/a/g/ f/e/d/c/ | d/c/B/c/ d/e/f/d/ | %134
 e/f/g/f/ e/d/c/B/ | c/B/A/B/ c/d/e/c/ | ^f/g/a/g/ f/e/d/c/ | Bg gg | gg gg | gg gg | gg gg | %141
 g g2 ^f | gf/e/ d/c/B/A/ | G g2 g- | g g2 g- | g g2 g- | g g2 g- | g g2 ^f | g4 |] %149
V:2
 z4 | G,3 ^F, | G,A, B,C | A,4 | A,3 ^F, | D,4- | D,G, CB, | A,4 | z4 | G,3 ^F, | G,A, B,C | A,4 | %12
 A,3 ^F, | D,4- | D,G, CB, | A,4 | z4 | C4- | C4 | B,4- | B,4 | A,4- | A,2 z2 | A,2 z2 | A,2 z2 | %25
 A,2 z2 |[K:treble] z G/^F/ GD | CA/G/ AE | DB/A/ BG | Ec/B/ cB | A2 A2 | %31
[K:bass] G,F,/E,/ D,/C,/B,,/A,,/ |[K:bass] G,,2 z2 | G,3 ^F, | G,A, B,C | A,4 | A,3 ^F, | D,4- | %38
 D,G, CB, | A,4 | z4 | C/E/D/E/ C/D/B,/C/ | F,2 z2 | B,/D/C/D/ B,/C/A,/B,/ | =E,2 G,2 | %45
 A,A,, ^C,A,, | z A,, ^C,A,, | z A,, ^C,A,, | D,D,, =E,,=E, | D,F, D,D,, | G,,2 A,,2 | B,,2 z2 | %52
 G,,2 A,,2 | B,,2 z2 | D,G, A,A,, | D,2 z2 | D,3 ^C, | D,=E, F,G, | =E,4 | =E,3 ^C, | A,,4- | %61
 A,,D, G,F, | =E,2[K:treble] z =E | DD AA | A2[K:bass] z A, | G,G, DD | D2[K:treble] z D | CC GG | %68
 G2[K:bass] z G, | F,F, CC | C2[K:treble] z C | B,B, FF | F2 z2 |[K:bass] B,,2 F,F,, | B,,2 z2 | %75
 B,,2 F,F,, | B,,2 z2 | C,2 G,G,, | C,2 z2 | C,2 G,G,, | C,2 z2 | D,2 A,A,, | D,2 z2 | D,2 A,A,, | %84
 D,2 z2 | G,2 z2 | C,2 =E,2 | F,2 z2 | E,2 z2 | E,2 z2 | F,2 z A,, |[K:treble] FB/A/ BF | %92
 Ec/B/ cG | Fd/c/ dB | Ge/d/ ed | c2 c2 | z4 |[K:bass] B,A,/G,/ F,/E,/D,/C,/ | B,,2 z2 | B,C DB, | %100
 =E,2 z2 | A,=B, ^CA, | D2 z2 | G,A, =B,G, | C2 z2 | F,G, F,=E, | D, z ^C, z | D, z =E, z | %108
 F,D, =E,^C, | D,C, B,,A,, |[K:treble] G4 | C4 | F4 | B,4 | E4 | A,4 | D2 z2 |[K:bass] A,2 z2 | %118
 A,2 z2 | A,2 z A, | G,F,/E,/ D,C, | B,,C, D,D,, | G,,2 z2 | G,3 ^F, | G,A, B,C | A,4 | A,3 ^F, | %127
 D,4- | D,G, CB, | A,2 z2 |[K:treble] DG DB, | GE CE | CF CA, | FD B,D | B,E B,G, | EC A,C | %136
 A,D A,[K:bass]^F, | G,2 z2 | z4 | z4 | z4 |[K:treble] GE DC | B,2 z2 | z G/F/ GD | CA/G/ AE | %145
 DB/A/ BG | Ec/B/ cB | A2 A2 | G4 |] %149
V:3
 z4 | G,2 D,2 | B,,2 G,,2 | ^F,,4 | ^F,=E, F,D, | G,,3 =F,, | E,,2 C,,2 | D,,4 | z4 | G,2 D,2 | %10
 B,,2 G,,2 | ^F,,4 | ^F,=E, F,D, | G,3 F, | E,2 C,2 | D,C, B,,A,, | G,,4 | C,4 | F,4 | B,,4 | E,4 | %21
 A,,4 | D,2 z2 | ^F,,2 z2 | ^F,,2 z2 | ^F,,2 z _G,, | G,,2 z G,, | A,,2 z A,, | B,,2 z B,, | %29
 C,2 z G,, | D,2 D,,2 | G,,2 z2 | G,,2 z2 | G,2 D,2 | B,,2 G,,2 | ^F,,4 | ^F,=E, F,D, | G,,3 =F,, | %38
 E,,2 C,,2 | D,,4 | z4 | z4 | z4 | z4 | z4 | z4 | z4 | z4 | z4 | z4 | z4 | z4 | z4 | z4 | z4 | z4 | %56
 D,2 A,,2 | F,,2 D,,2 | ^C,,4 | ^C,=B,, C,A,, | D,3 C, | B,,2 G,,2 | A,,2 z A,, | =B,,2 ^C,2 | %64
 D,2 z D, | =E,2 ^F,2 | G,2 z G,, | A,,2 =B,,2 | C,2 z C, | D,2 =E,2 | F,2 z F,, | G,,2 A,,2 | %72
 B,,2 z2 | z4 | z4 | z4 | z4 | z4 | z4 | z4 | z4 | z4 | z4 | z4 | z4 | z4 | z4 | z4 | A,,2 z2 | %89
 A,,2 z2 | A,,2 z2 | B,,2 z B,, | C,2 z C, | D,2 z D, | E,2 z E, | F,2 F,,2 | B,,2 z2 | z4 | z4 | %99
 z4 | z4 | z4 | z4 | z4 | z4 | z4 | z4 | z4 | z4 | z4 | G,,G, G,,2 | z4 | z F, F,,2 | z4 | %114
 z E, E,,2 | z4 | z D, D,,2 | ^F,2 z2 | ^F,2 z2 | ^F,2 z D, | G,2 z2 | z4 | z4 | G,2 D,2 | %124
 B,,2 G,,2 | ^F,,4 | ^F,=E, F,D, | G,3 F, | E,2 C,2 | D,C, B,,A,, | G,,3 G, | C,3 C, | F,3 F, | %133
 B,,3 B,, | E,3 E, | A,,3 A,, | D,3 D, | G,,2 z2 | z4 | z4 | z4 | G,C, D,D,, | B,,2 z2 | %143
 G,,2 z G,, | A,,2 z A,, | B,,2 z B,, | C,2 z G,, | D,2 D,,2 | G,,4 |] %149
V:4
 x4 | D4- | DC DE | E4- | E2 D2- | DB, D2- | D2 E2 | D4 | x4 | D4- | DC DE | E4- | E2 D2- | %13
 DB, D2- | D2 E2 | D4 | x4 | G4 | AF Ac | F4 | GE GB | =E4 | D2 z ^F/G/ | A E2 ^F/G/ | A D2 ^F/G/ | %25
 A C2 c | BB/A/ BB | cc/B/ cc | dd/c/ dd | ee/d/ ed | d2 d2 | d2 x2 | x4 | D4- | DC DE | E4- | %36
 E2 D2- | DB, D2- | D2 E2 | D4 | x4 | x4 | x4 | x4 | x4 | x4 | x4 | x4 | x4 | x4 | x4 | x4 | x4 | %53
 x4 | x4 | x4 |[I:staff +1] A,4- | A,G, A,B, | B,4- | B,2 A,2- | A,F, A,2- | A,2 B,2 | %62
 A,2[I:staff -1] z ^c | dd =ee | d2 d2- | dc/=B/ cc | c=B z B | cc dd | c2 c2- | cB/A/ BB | %70
 BA z A | BB cc | B2 x2 | x4 | x4 | x4 | x4 | x4 | x4 | x4 | x4 | x4 | x4 | x4 | x4 | x4 | x4 | %87
 x3 A,/B,/ | C G2 A,/B,/ | C F2 A,/B,/ | CE- E/A/B/c/ | dd/c/ dd | ee/d/ ee | ff/e/ ff | gg/f/ gf | %95
 f2 e2 | x4 | x4 | x4 | x4 | x4 | x4 | x4 | x4 | x4 | x4 | x4 | x4 | x4 | x4 | B4- | BE GB | A4- | %113
 AD FA | G4- | G^C =EG | A2 z ^F/G/ | A E2 ^F/G/ | A D2 ^F/G/ | A C2 D | D x3 | x4 | x4 | D4- | %124
 DC DE | E4- | E2 D2- | DB, D2- | D2 E2 | D2 z2 | B4- | B4 | A4- | A4 | G4- | G4 | ^F4- | %137
 F/B/A/B/ G/B/A/B/ | A/c/B/c/ A/c/B/c/ | B/d/c/d/ B/d/c/d/ | c/e/d/e/ c/e/d/e/ | [Bd]2 [Ac]2 | %142
 [Gd]2 z2 | x B/A/ BB | cc/B/ cc | dd/c/ dd | ee/d/ ed | d2 c2 | B4 |] %149
V:5
 x4 | x4 | x4 | x4 | x4 | x4 | x4 | x4 | x4 | x4 | x4 | x4 | x4 | x4 | x4 | x4 | x4 | x4 | x4 | %19
 x4 | x4 | x4 | x4 | x4 | x4 | x4 | x4 | x4 | x4 | x4 | x4 | B2 x2 | x4 | x4 | x4 | x4 | x4 | x4 | %38
 x4 | x4 | x4 | x4 | x4 | x4 | x4 | x4 | x4 | x4 | x4 | x4 | x4 | x4 | x4 | x4 | x4 | x4 | x4 | %57
 x4 | x4 | x4 | x4 | x4 | x4 | x4 | x4 | x4 | x4 | x4 | x4 | x4 | x4 | x4 | x4 | x4 | x4 | x4 | %76
 x4 | x4 | x4 | x4 | x4 | x4 | x4 | x4 | x4 | x4 | x4 | x4 | x4 | x4 | x4 | x4 | x4 | x4 | x4 | %95
 x4 | x4 | x4 | x4 | x4 | x4 | x4 | x4 | x4 | x4 | x4 | x4 | x4 | x4 | x4 | x4 | x4 | x4 | x4 | %114
 x4 | x4 | x4 | x4 | x4 | x4 | x4 | x4 | x4 | x4 | x4 | x4 | x4 | x4 | x4 | x4 | x4 | x4 | x4 | %133
 x4 | x4 | x4 | x4 | x4 | x4 | x4 | x4 | x4 | x4 | x4 | x4 | x4 | x4 | x4 | x4 |] %149

